symbols/web/notification_add/materialsymbolsrounded/notification_add_wght300gradN25_20px.svg

<svg xmlns="http://www.w3.org/2000/svg" height="20" width="20"><path d="M4.271 15.688q-.229 0-.427-.198-.198-.198-.198-.428 0-.229.198-.427.198-.197.427-.197h1.041V8.479q0-1.604 1-2.906t2.646-1.656v-.563q0-.458.292-.75t.75-.292q.438 0 .74.292t.302.75v.563q.458.125.896.312.437.188.854.479l-.427.427-.448.448q-.459-.25-.917-.395-.458-.146-1-.146-1.417 0-2.438 1.01-1.02 1.01-1.02 2.427v5.959h6.916v-2.834h1.25v2.834h1.021q.229 0 .427.197.198.198.198.427 0 .25-.198.438t-.427.188ZM10 18.062q-.646 0-1.062-.416-.417-.417-.417-1.063h2.958q0 .646-.417 1.063-.416.416-1.062.416Zm6.646-7.5q-.25 0-.438-.187-.187-.187-.187-.437V8.125h-1.813q-.25 0-.437-.187-.188-.188-.188-.438t.188-.438q.187-.187.437-.187h1.813V5.062q0-.25.187-.437.188-.187.438-.187t.437.187q.188.187.188.437v1.813h1.812q.25 0 .438.187.187.188.187.438t-.187.438q-.188.187-.438.187h-1.812v1.813q0 .25-.188.437-.187.187-.437.187ZM10 9.729Z"/></svg>

<svg xmlns="http://www.w3.org/2000/svg" height="20" width="20"><path d="M4.271 15.688Q4.042 15.688 3.844 15.49Q3.646 15.292 3.646 15.062Q3.646 14.833 3.844 14.635Q4.042 14.438 4.271 14.438H5.312V8.479Q5.312 6.875 6.312 5.573Q7.312 4.271 8.958 3.917V3.354Q8.958 2.896 9.25 2.604Q9.542 2.312 10 2.312Q10.438 2.312 10.74 2.604Q11.042 2.896 11.042 3.354V3.917Q11.5 4.042 11.938 4.229Q12.375 4.417 12.792 4.708Q12.562 4.938 12.365 5.135Q12.167 5.333 11.917 5.583Q11.458 5.333 11 5.188Q10.542 5.042 10 5.042Q8.583 5.042 7.562 6.052Q6.542 7.062 6.542 8.479V14.438H13.458V11.604Q13.833 11.604 14.073 11.604Q14.312 11.604 14.708 11.604V14.438H15.729Q15.958 14.438 16.156 14.635Q16.354 14.833 16.354 15.062Q16.354 15.312 16.156 15.5Q15.958 15.688 15.729 15.688ZM10 18.062Q9.354 18.062 8.938 17.646Q8.521 17.229 8.521 16.583H11.479Q11.479 17.229 11.062 17.646Q10.646 18.062 10 18.062ZM16.646 10.562Q16.396 10.562 16.208 10.375Q16.021 10.188 16.021 9.938V8.125H14.208Q13.958 8.125 13.771 7.938Q13.583 7.75 13.583 7.5Q13.583 7.25 13.771 7.062Q13.958 6.875 14.208 6.875H16.021V5.062Q16.021 4.812 16.208 4.625Q16.396 4.438 16.646 4.438Q16.896 4.438 17.083 4.625Q17.271 4.812 17.271 5.062V6.875H19.083Q19.333 6.875 19.521 7.062Q19.708 7.25 19.708 7.5Q19.708 7.75 19.521 7.938Q19.333 8.125 19.083 8.125H17.271V9.938Q17.271 10.188 17.083 10.375Q16.896 10.562 16.646 10.562ZM10 9.729Q10 9.729 10 9.729Q10 9.729 10 9.729Q10 9.729 10 9.729Q10 9.729 10 9.729Q10 9.729 10 9.729Q10 9.729 10 9.729Q10 9.729 10 9.729Q10 9.729 10 9.729Z"/></svg>
